src/assets/images/team/rahul.svg

<svg width="228" height="303" viewBox="0 0 228 303" fill="none" xmlns="http://www.w3.org/2000/svg">
<rect width="228" height="303" rx="26" fill="#FDFDFD"/>
<path opacity="0.3" d="M126.669 242.691C126.088 243.905 125.507 245.121 124.925 246.336C124.888 246.415 125.013 246.483 125.051 246.404C125.632 245.189 126.214 243.973 126.795 242.758C126.832 242.68 126.707 242.611 126.669 242.691Z" fill="#EFA841"/>
<path d="M125.894 210.477C129.347 215.488 129.949 221.197 129.637 227.017C129.321 232.911 128.586 238.887 125.771 244.255C123.331 248.908 119.517 253.121 114.553 255.585C110.963 257.367 108.412 256.552 105.218 254.584C102.449 252.878 100.112 250.62 98.2202 248.094C94.5896 243.245 92.9787 237.682 92.3476 231.869C91.7694 226.538 91.341 220.958 93.0163 215.752C95.251 208.808 100.875 204.57 108.587 203.864C115.453 203.234 121.747 205.174 125.894 210.477C126.057 210.686 126.436 210.483 126.27 210.272C120.832 203.32 109.632 201.12 101.369 205.18C90.8967 210.326 90.8815 222.375 91.9113 231.869C92.9287 241.252 97.1043 250.827 106.339 255.694C107.408 256.257 109.549 257.466 110.842 257.446C112.916 257.413 115.862 255.442 117.431 254.377C121.323 251.732 124.34 248.054 126.371 244.013C129.043 238.696 129.763 232.818 130.072 227.017C130.386 221.139 129.753 215.327 126.27 210.272C126.12 210.053 125.742 210.256 125.894 210.477Z" fill="#231F20"/>
<path d="M65.1772 302.668C65.9523 297.494 66.7273 292.32 67.5024 287.146C68.0155 283.719 68.5792 280.165 70.6257 277.274C72.9603 273.976 76.9151 271.992 80.875 270.559C84.0715 269.402 87.3345 268.266 90.5606 267.22C91.3617 266.961 92.1512 266.622 92.9342 266.264L129.013 266.372C129.718 266.69 130.43 266.987 131.15 267.22C134.376 268.266 137.639 269.402 140.836 270.559C144.796 271.992 148.751 273.976 151.085 277.274C153.132 280.166 153.695 283.72 154.209 287.146C154.984 292.32 155.759 297.494 156.534 302.668" fill="#EB485E"/>
<path d="M120.819 259.083C120.819 259.083 126.917 260.404 127.056 264.486C127.053 264.618 125.595 273.084 111.104 275.155C111.548 275.155 122.443 279.829 122.443 279.829C122.443 279.829 138.342 263.756 120.819 259.083Z" stroke="#231F20" stroke-width="0.6027" stroke-miterlimit="10"/>
<path d="M120.819 259.083C120.819 259.083 126.917 260.404 127.056 264.486C127.053 264.618 125.595 273.084 111.104 275.155C111.548 275.155 122.443 279.829 122.443 279.829C122.443 279.829 138.342 263.756 120.819 259.083Z" fill="white" stroke="#231F20" stroke-width="0.6027" stroke-miterlimit="10"/>
<path d="M120.819 259.083C120.819 259.083 131.925 261.094 124.069 269.559C123.808 269.289 120.358 264.6 120.819 259.083Z" fill="#111111"/>
<path d="M101.072 259.083C101.072 259.083 94.4574 260.241 94.9169 264.546C95.0588 265.876 96.0278 267.478 97.8818 269.476C98.1438 269.207 101.533 264.6 101.072 259.083Z" fill="#111111"/>
<path d="M117.235 226.813C118.152 226.813 118.896 226.123 118.896 225.271C118.896 224.419 118.152 223.728 117.235 223.728C116.317 223.728 115.573 224.419 115.573 225.271C115.573 226.123 116.317 226.813 117.235 226.813Z" fill="#231F20"/>
<path d="M98.9834 249.645C101.602 255.52 102.208 264.099 97.7908 269.466C97.62 269.673 97.9992 269.875 98.1671 269.67C102.643 264.233 102.053 255.481 99.4038 249.538C99.2982 249.3 98.8763 249.404 98.9834 249.645Z" fill="#231F20"/>
<path d="M156.709 302.624C155.966 297.666 155.228 292.707 154.48 287.748C153.885 283.799 153.319 279.653 150.625 276.392C145.617 270.327 136.121 269.236 129.104 266.227C128.893 266.136 128.709 266.427 128.921 266.518C136.13 269.611 146.268 270.687 150.928 277.36C153.35 280.829 153.726 285.142 154.323 289.132C155.001 293.66 155.68 298.187 156.358 302.714C156.39 302.928 156.74 302.837 156.709 302.624Z" fill="#231F20"/>
<path d="M92.8429 266.119C85.7481 269.215 76.1856 270.269 71.0852 276.392C68.5234 279.467 67.9032 283.363 67.3272 287.102C66.5311 292.273 65.7771 297.45 65.002 302.624C64.9702 302.837 65.3205 302.929 65.3523 302.714C65.9985 298.402 66.644 294.09 67.2903 289.778C67.9177 285.589 68.2404 281.007 70.7827 277.359C75.4793 270.621 85.7742 269.575 93.026 266.41C93.2381 266.318 93.0535 266.027 92.8429 266.119Z" fill="#231F20"/>
<path d="M115.887 214.794L116.002 216.88C116.002 216.88 123.308 217.569 123.308 217.451C123.308 217.333 123.308 215.465 123.308 215.465L115.887 214.794Z" fill="#231F20"/>
<path d="M105.288 243.402C109.48 243.949 114.119 243.727 117.688 241.435C117.917 241.288 117.699 240.937 117.468 241.086C114.012 243.306 109.472 243.543 105.404 243.011C105.129 242.976 105.011 243.366 105.288 243.402Z" fill="#231F20"/>
<path d="M109.07 245.761C109.837 245.753 110.564 245.57 111.23 245.217C111.473 245.087 111.253 244.737 111.01 244.867C110.408 245.187 109.763 245.349 109.071 245.356C108.79 245.359 108.789 245.763 109.07 245.761Z" fill="#231F20"/>
<path d="M91.7453 224.237C90.2473 222.932 87.8165 222.255 86.1246 223.741C84.3907 225.263 84.8451 228.305 85.393 230.188C86.0124 232.319 87.1587 235.474 89.5613 236.416C91.0737 237.009 92.6217 236.563 92.8612 234.963C92.8995 234.708 92.4791 234.598 92.4407 234.856C90.3276 236.105 88.8535 236.023 88.0177 234.61C87.6559 234.216 87.362 233.782 87.137 233.308C86.5899 232.35 86.1195 231.146 85.8141 230.081C85.4147 228.69 85.1773 227.18 85.537 225.756C86.1991 223.135 89.3051 222.667 91.4377 224.523C91.6411 224.701 91.9508 224.415 91.7453 224.237Z" fill="#231F20"/>
<path d="M91.8473 228.952C90.7351 227.998 88.1603 226.734 87.1594 228.455C87.0263 228.684 87.4026 228.889 87.5357 228.659C88.3672 227.229 90.6511 228.477 91.5383 229.238C91.7453 229.415 92.0543 229.129 91.8473 228.952Z" fill="#231F20"/>
<path d="M89.9782 228.004C88.905 228.819 88.6713 230.155 89.3862 231.252C89.5317 231.475 89.9087 231.272 89.7625 231.048C89.1409 230.095 89.3602 228.993 90.2858 228.291C90.5036 228.126 90.1939 227.841 89.9782 228.004Z" fill="#231F20"/>
<path d="M130.238 224.523C132.228 222.791 135.493 223.233 136.139 225.756C136.496 227.149 136.235 228.713 135.862 230.08C135.564 231.172 135.094 232.32 134.539 233.307C134.405 233.54 134.272 233.773 134.138 234.005C133.25 235.846 131.615 236.129 129.234 234.855C129.196 234.598 128.776 234.708 128.814 234.963C129.051 236.546 130.575 237.006 132.088 236.426C134.49 235.504 135.682 232.305 136.282 230.188C136.824 228.281 137.271 225.318 135.573 223.757C133.911 222.229 131.417 222.943 129.93 224.236C129.724 224.415 130.033 224.701 130.238 224.523Z" fill="#231F20"/>
<path d="M130.136 229.238C131.021 228.48 133.307 227.227 134.139 228.659C134.272 228.888 134.649 228.684 134.515 228.455C133.515 226.734 130.938 227.999 129.827 228.952C129.621 229.129 129.93 229.415 130.136 229.238Z" fill="#231F20"/>
<path d="M131.389 228.29C132.315 228.993 132.533 230.095 131.912 231.047C131.766 231.271 132.143 231.475 132.289 231.252C133.004 230.154 132.77 228.818 131.697 228.003C131.481 227.841 131.171 228.126 131.389 228.29Z" fill="#231F20"/>
<path d="M103.872 214.794L103.758 216.88C103.758 216.88 96.4512 217.569 96.4512 217.451C96.4512 217.333 96.4512 215.465 96.4512 215.465L103.872 214.794Z" fill="#231F20"/>
<path d="M100.742 225.271C100.742 226.123 101.486 226.813 102.403 226.813C103.321 226.813 104.065 226.123 104.065 225.271C104.065 224.419 103.321 223.728 102.403 223.728C101.486 223.728 100.742 224.419 100.742 225.271Z" fill="#231F20"/>
<path d="M83.7216 302.596C83.7216 298.715 83.7216 294.833 83.7216 290.952C83.7216 290.778 83.4307 290.778 83.4307 290.952C83.4307 294.833 83.4307 298.715 83.4307 302.596C83.4307 302.77 83.7216 302.77 83.7216 302.596Z" fill="#231F20"/>
<path d="M136.666 302.596C136.666 298.715 136.666 294.833 136.666 290.952C136.666 290.778 136.375 290.778 136.375 290.952C136.375 294.833 136.375 298.715 136.375 302.596C136.376 302.77 136.666 302.77 136.666 302.596Z" fill="#231F20"/>
<path opacity="0.2" d="M123.524 220.564V225.416C123.524 228.326 120.983 230.685 117.85 230.685C114.715 230.685 112.175 228.325 112.175 225.416V220.807C112.175 220.807 116.823 218.624 123.524 220.564Z" fill="#231F20"/>
<path opacity="0.2" d="M112.5 227.177C112.728 227.772 113.066 228.317 113.493 228.792L122.401 221.044L122.261 220.993C121.571 220.742 120.834 220.621 120.093 220.637C118.663 221.846 115.105 224.922 112.5 227.177Z" fill="#EEEEEF"/>
<path opacity="0.2" d="M116.979 230.623L123.421 225.02L123.524 224.161V223.008C122.45 223.894 116.039 229.456 115.28 230.113C115.806 230.361 116.377 230.537 116.979 230.623Z" fill="#EEEEEF"/>
<path d="M111.12 220.488C111.12 220.488 116.69 217.248 125.186 220.488C125.052 220.701 125.186 222.079 125.186 222.079C125.186 222.079 119 218.579 111.12 222.079V220.488Z" fill="#231F20"/>
<path d="M112.175 220.806V225.415C112.175 228.325 114.716 230.684 117.849 230.684C120.983 230.684 123.523 228.325 123.523 225.415V220.563" stroke="#231F20" stroke-width="0.6027" stroke-miterlimit="10"/>
<path d="M123.524 222.542L131.062 223.362L130.084 224.38L123.524 223.988V222.542Z" fill="#231F20"/>
<path opacity="0.2" d="M94.3813 220.564V225.416C94.3813 228.326 96.9221 230.685 100.056 230.685C103.19 230.685 105.73 228.325 105.73 225.416V220.807C105.73 220.807 101.081 218.624 94.3813 220.564Z" fill="#231F20"/>
<path opacity="0.2" d="M94.6504 227.177C94.8776 227.772 95.2163 228.317 95.6433 228.792L104.551 221.044L104.41 220.993C103.72 220.742 102.983 220.621 102.243 220.637C100.812 221.846 97.2541 224.922 94.6504 227.177Z" fill="#EEEEEF"/>
<path opacity="0.2" d="M99.1281 230.623L105.57 225.02L105.673 224.161V223.008C104.6 223.894 98.1881 229.456 97.4297 230.113C97.9543 230.361 98.5253 230.537 99.1281 230.623Z" fill="#EEEEEF"/>
<path d="M106.786 220.488C106.786 220.488 101.215 217.248 92.7197 220.488C92.8536 220.701 92.7197 222.079 92.7197 222.079C92.7197 222.079 98.9056 218.579 106.786 222.079V220.488Z" fill="#231F20"/>
<path d="M105.73 220.806V225.415C105.73 228.325 103.19 230.684 100.056 230.684C96.9219 230.684 94.3818 228.325 94.3818 225.415V220.563" stroke="#231F20" stroke-width="0.6027" stroke-miterlimit="10"/>
<path d="M94.3811 222.542L91.6297 223.199L91.5972 224.224L94.3811 223.988V222.542Z" fill="#231F20"/>
<path d="M108.979 223.816C107.517 225.745 106.642 227.412 106.449 229.763C106.335 231.146 105.716 233.811 106.863 234.983C108.494 236.65 112.053 234.56 110.215 233.633C109.968 233.509 109.748 233.858 109.995 233.983C108.531 235.73 107.459 235.562 106.778 233.479C106.772 232.983 106.774 232.488 106.784 231.992C106.8 231.25 106.815 230.503 106.885 229.763C107.096 227.521 107.979 225.838 109.356 224.02C109.518 223.807 109.14 223.604 108.979 223.816Z" fill="#231F20"/>
<path d="M106.613 234.442C106.186 234.541 105.791 234.314 105.791 233.887C105.791 233.626 105.355 233.625 105.355 233.887C105.355 234.588 106.028 234.995 106.729 234.833C107.002 234.77 106.886 234.379 106.613 234.442Z" fill="#231F20"/>
<path d="M105.73 225.271C105.73 225.271 108.229 222.413 112.175 225.271C112.175 225.203 112.175 224.001 112.175 224.001C112.175 224.001 109.08 222.167 105.73 224.001C105.73 223.966 105.73 225.271 105.73 225.271Z" fill="#231F20"/>
<path d="M101.073 259.083C101.073 259.083 94.9742 260.404 94.8352 264.486C94.8381 264.618 96.0314 272.566 111.104 275.223C110.66 275.223 99.4479 279.83 99.4479 279.83C99.4479 279.83 83.5496 263.756 101.073 259.083Z" stroke="#231F20" stroke-width="0.6027" stroke-miterlimit="10"/>
<path d="M101.073 259.083C101.073 259.083 94.9742 260.404 94.8352 264.486C94.8381 264.618 96.0314 272.566 111.104 275.223C110.66 275.223 99.4479 279.83 99.4479 279.83C99.4479 279.83 83.5496 263.756 101.073 259.083Z" fill="white" stroke="#231F20" stroke-width="0.6027" stroke-miterlimit="10"/>
<path d="M111.104 275.156V302.669" stroke="#231F20" stroke-width="0.8037" stroke-miterlimit="10"/>
<path d="M111.173 288.418C112.348 288.418 113.3 287.533 113.3 286.442C113.3 285.351 112.348 284.467 111.173 284.467C109.997 284.467 109.045 285.351 109.045 286.442C109.045 287.533 109.997 288.418 111.173 288.418Z" fill="#111111"/>
<path d="M111.173 301.311C112.348 301.311 113.3 300.427 113.3 299.335C113.3 298.244 112.348 297.36 111.173 297.36C109.997 297.36 109.045 298.244 109.045 299.335C109.045 300.427 109.997 301.311 111.173 301.311Z" fill="#111111"/>
<path d="M136.19 213.174C136.099 211.546 135.72 209.94 135.149 208.401C134.338 206.218 133.331 204.157 131.498 202.607C129.728 201.11 127.719 199.88 125.565 198.911C121.284 196.985 116.492 196.062 111.747 196.001C109.709 195.976 107.737 196.337 105.727 196.603C103.54 196.892 101.387 197.504 99.4885 198.568C96.6734 200.146 94.4612 202.808 94.0472 205.836C94.0407 205.885 94.0364 205.935 94.0313 205.984C93.723 206.06 93.4625 206.146 93.2961 206.237C91.7952 207.054 90.8103 208.533 90.3428 210.089C89.8753 211.645 89.8731 213.288 89.9629 214.902C90.1264 217.837 90.6004 220.756 91.3429 223.614C91.4247 226.201 91.594 228.784 91.9949 231.344C92.0774 231.871 92.1693 232.397 92.2721 232.922C92.3213 230.259 92.4197 227.59 92.8337 224.954C92.9827 224.007 93.1716 223.066 93.3243 222.12C93.4821 221.143 93.4726 220.15 93.6188 219.179C93.8656 217.54 93.7216 215.78 93.6724 214.095C94.4843 212.413 95.5134 210.823 96.7501 209.382C100.408 211.561 104.858 212.374 109.153 212.657C114.299 212.997 119.729 214.523 124.307 216.817C125.538 217.433 126.722 218.158 127.733 219.048C127.707 221.03 128.186 222.989 128.495 224.954C128.908 227.59 129.007 230.259 129.056 232.922C129.159 232.397 129.251 231.871 129.333 231.344C129.72 228.87 129.89 226.375 129.976 223.875C129.992 223.934 130.022 223.986 130.08 224.014C130.139 224.043 130.204 224.038 130.267 224.016C130.33 223.995 130.392 223.957 130.447 223.921C130.806 223.689 131.21 223.515 131.633 223.411C132.303 223.247 133.125 221.956 133.564 221.439C134.232 220.654 134.769 219.777 135.179 218.853C135.973 217.066 136.299 215.102 136.19 213.174ZM129.995 223.351C129.997 223.282 130 223.212 130.003 223.141C130.011 222.846 130.019 222.551 130.027 222.256C130.061 222.618 130.029 223 129.995 223.351Z" fill="#231F20"/>
<path d="M122.919 248.999C115.047 257.89 110.981 256.865 110.999 256.907C104.368 256.277 99.1936 249.592 99.1936 249.592C104.503 262.519 97.9785 269.568 97.9785 269.568C113.38 281.726 124.018 269.56 124.018 269.56C123.794 269.283 123.659 269.067 123.488 268.759C121.928 265.931 121.119 262.816 121.037 259.627C120.954 256.391 121.5 251.959 122.919 248.999Z" fill="white" stroke="#231F20" stroke-width="0.75" stroke-miterlimit="10"/>
<path d="M99.5908 250.108C99.5908 250.108 109.081 270.841 121.385 254.402C121.365 254.534 122.001 249.685 123.829 247.806C123.843 247.786 120.225 252.894 116.463 254.758C116.48 254.748 111.811 257.563 110.784 257.251C110.784 257.251 102.75 254.998 99.5908 250.108Z" fill="#231F20"/>
</svg>

<svg xmlns="http://www.w3.org/2000/svg" width="228" height="303" fill="none"><rect width="228" height="303" fill="#FDFDFD" rx="26"/><path fill="#EFA841" d="m126.669 242.691-1.744 3.645c-.037.079.088.147.126.068l1.744-3.646c.037-.078-.088-.147-.126-.067" opacity=".3"/><path fill="#231F20" d="M125.894 210.477c3.453 5.011 4.055 10.72 3.743 16.54-.316 5.894-1.051 11.87-3.866 17.238-2.44 4.653-6.254 8.866-11.218 11.33-3.59 1.782-6.141.967-9.335-1.001-2.769-1.706-5.106-3.964-6.998-6.49-3.63-4.849-5.241-10.412-5.872-16.225-.579-5.331-1.007-10.911.668-16.117 2.235-6.944 7.859-11.182 15.571-11.888 6.866-.63 13.16 1.31 17.307 6.613.163.209.542.006.376-.205-5.438-6.952-16.638-9.152-24.901-5.092-10.472 5.146-10.487 17.195-9.458 26.689 1.018 9.383 5.193 18.958 14.428 23.825 1.069.563 3.21 1.772 4.503 1.752 2.074-.033 5.02-2.004 6.589-3.069 3.892-2.645 6.909-6.323 8.94-10.364 2.672-5.317 3.392-11.195 3.701-16.996.314-5.878-.319-11.69-3.802-16.745-.15-.219-.528-.016-.376.205"/><path fill="#EB485E" d="m65.177 302.668 2.325-15.522c.514-3.427 1.077-6.981 3.124-9.872 2.334-3.298 6.29-5.282 10.249-6.715a305 305 0 0 1 9.686-3.339c.8-.259 1.59-.598 2.373-.956l36.079.108c.705.318 1.417.615 2.137.848a306 306 0 0 1 9.686 3.339c3.96 1.433 7.915 3.417 10.249 6.715 2.047 2.892 2.61 6.446 3.124 9.872l2.325 15.522"/><path stroke="#231F20" stroke-miterlimit="10" stroke-width=".603" d="M120.819 259.083s6.098 1.321 6.237 5.403c-.003.132-1.461 8.598-15.952 10.669.444 0 11.339 4.674 11.339 4.674s15.899-16.073-1.624-20.746Z"/><path fill="#fff" stroke="#231F20" stroke-miterlimit="10" stroke-width=".603" d="M120.819 259.083s6.098 1.321 6.237 5.403c-.003.132-1.461 8.598-15.952 10.669.444 0 11.339 4.674 11.339 4.674s15.899-16.073-1.624-20.746Z"/><path fill="#111" d="M120.819 259.083s11.106 2.011 3.25 10.476c-.261-.27-3.711-4.959-3.25-10.476M101.072 259.083s-6.615 1.158-6.155 5.463c.142 1.33 1.11 2.932 2.965 4.93.262-.269 3.651-4.876 3.19-10.393"/><path fill="#231F20" d="M117.235 226.813c.917 0 1.661-.69 1.661-1.542s-.744-1.543-1.661-1.543c-.918 0-1.662.691-1.662 1.543s.744 1.542 1.662 1.542M98.983 249.645c2.619 5.875 3.225 14.454-1.192 19.821-.171.207.208.409.376.204 4.476-5.437 3.886-14.189 1.237-20.132-.106-.238-.528-.134-.42.107M156.709 302.624c-.743-4.958-1.481-9.917-2.229-14.876-.595-3.949-1.161-8.095-3.855-11.356-5.008-6.065-14.504-7.156-21.521-10.165-.211-.091-.395.2-.183.291 7.209 3.093 17.347 4.169 22.007 10.842 2.422 3.469 2.798 7.782 3.395 11.772l2.035 13.582c.032.214.382.123.351-.09M92.843 266.119c-7.095 3.096-16.657 4.15-21.758 10.273-2.562 3.075-3.182 6.971-3.758 10.71-.796 5.171-1.55 10.348-2.325 15.522-.032.213.319.305.35.09l1.938-12.936c.628-4.189.95-8.771 3.493-12.419 4.696-6.738 14.991-7.784 22.243-10.949.212-.092.028-.383-.183-.291M115.887 214.794l.115 2.086s7.306.689 7.306.571v-1.986zM105.288 243.402c4.192.547 8.831.325 12.4-1.967.229-.147.011-.498-.22-.349-3.456 2.22-7.996 2.457-12.064 1.925-.275-.035-.393.355-.116.391M109.07 245.761a4.7 4.7 0 0 0 2.16-.544c.243-.13.023-.48-.22-.35a4.16 4.16 0 0 1-1.939.489c-.281.003-.282.407-.001.405M91.745 224.237c-1.498-1.305-3.928-1.982-5.62-.496-1.734 1.522-1.28 4.564-.732 6.447.62 2.131 1.766 5.286 4.168 6.228 1.513.593 3.06.147 3.3-1.453.038-.255-.382-.365-.42-.107q-3.17 1.873-4.423-.246a5.2 5.2 0 0 1-.881-1.302c-.547-.958-1.017-2.162-1.323-3.227-.4-1.391-.637-2.901-.277-4.325.662-2.621 3.768-3.089 5.9-1.233.204.178.514-.108.308-.286"/><path fill="#231F20" d="M91.847 228.952c-1.112-.954-3.687-2.218-4.688-.497-.133.229.244.434.377.204.831-1.43 3.115-.182 4.002.579.207.177.516-.109.31-.286"/><path fill="#231F20" d="M89.978 228.004c-1.073.815-1.307 2.151-.592 3.248.146.223.523.02.377-.204-.622-.953-.403-2.055.523-2.757.218-.165-.092-.45-.308-.287M130.238 224.523c1.99-1.732 5.255-1.29 5.901 1.233.357 1.393.096 2.957-.277 4.324a14.7 14.7 0 0 1-1.323 3.227l-.401.698q-1.332 2.761-4.904.85c-.038-.257-.458-.147-.42.108.237 1.583 1.761 2.043 3.274 1.463 2.402-.922 3.594-4.121 4.194-6.238.542-1.907.989-4.87-.709-6.431-1.662-1.528-4.156-.814-5.643.479-.206.179.103.465.308.287"/><path fill="#231F20" d="M130.136 229.238c.885-.758 3.171-2.011 4.003-.579.133.229.51.025.376-.204-1-1.721-3.577-.456-4.688.497-.206.177.103.463.309.286"/><path fill="#231F20" d="M131.389 228.29c.926.703 1.144 1.805.523 2.757-.146.224.231.428.377.205.715-1.098.481-2.434-.592-3.249-.216-.162-.526.123-.308.287M103.872 214.794l-.114 2.086s-7.307.689-7.307.571v-1.986zM100.742 225.271c0 .852.744 1.542 1.661 1.542.918 0 1.662-.69 1.662-1.542s-.744-1.543-1.662-1.543-1.661.691-1.661 1.543M83.722 302.596v-11.644c0-.174-.291-.174-.291 0v11.644c0 .174.29.174.29 0M136.666 302.596v-11.644c0-.174-.291-.174-.291 0v11.644c.001.174.291.174.291 0"/><path fill="#231F20" d="M123.524 220.564v4.852c0 2.91-2.541 5.269-5.674 5.269-3.135 0-5.675-2.36-5.675-5.269v-4.609s4.648-2.183 11.349-.243" opacity=".2"/><path fill="#EEEEEF" d="M112.5 227.177a5.2 5.2 0 0 0 .993 1.615l8.908-7.748-.14-.051a6 6 0 0 0-2.168-.356c-1.43 1.209-4.988 4.285-7.593 6.54M116.979 230.623l6.442-5.603.103-.859v-1.153c-1.074.886-7.485 6.448-8.244 7.105a6 6 0 0 0 1.699.51" opacity=".2"/><path fill="#231F20" d="M111.12 220.488s5.57-3.24 14.066 0c-.134.213 0 1.591 0 1.591s-6.186-3.5-14.066 0z"/><path stroke="#231F20" stroke-miterlimit="10" stroke-width=".603" d="M112.175 220.806v4.609c0 2.91 2.541 5.269 5.674 5.269s5.674-2.359 5.674-5.269v-4.852"/><path fill="#231F20" d="m123.524 222.542 7.538.82-.978 1.018-6.56-.392z"/><path fill="#231F20" d="M94.381 220.564v4.852c0 2.91 2.541 5.269 5.675 5.269s5.674-2.36 5.674-5.269v-4.609s-4.649-2.183-11.349-.243" opacity=".2"/><path fill="#EEEEEF" d="M94.65 227.177c.228.595.566 1.14.993 1.615l8.908-7.748-.141-.051a6 6 0 0 0-2.167-.356c-1.431 1.209-4.989 4.285-7.593 6.54M99.128 230.623l6.442-5.603.103-.859v-1.153c-1.073.886-7.485 6.448-8.243 7.105a6 6 0 0 0 1.698.51" opacity=".2"/><path fill="#231F20" d="M106.786 220.488s-5.571-3.24-14.066 0c.134.213 0 1.591 0 1.591s6.186-3.5 14.066 0z"/><path stroke="#231F20" stroke-miterlimit="10" stroke-width=".603" d="M105.73 220.806v4.609c0 2.91-2.54 5.269-5.674 5.269s-5.674-2.359-5.674-5.269v-4.852"/><path fill="#231F20" d="m94.381 222.542-2.751.657-.033 1.025 2.784-.236zM108.979 223.816c-1.462 1.929-2.337 3.596-2.53 5.947-.114 1.383-.733 4.048.414 5.22 1.631 1.667 5.19-.423 3.352-1.35-.247-.124-.467.225-.22.35q-2.196 2.62-3.217-.504a46 46 0 0 1 .006-1.487c.016-.742.031-1.489.101-2.229.211-2.242 1.094-3.925 2.471-5.743.162-.213-.216-.416-.377-.204"/><path fill="#231F20" d="M106.613 234.442c-.427.099-.822-.128-.822-.555 0-.261-.436-.262-.436 0 0 .701.673 1.108 1.374.946.273-.063.157-.454-.116-.391M105.73 225.271s2.499-2.858 6.445 0v-1.27s-3.095-1.834-6.445 0z"/><path stroke="#231F20" stroke-miterlimit="10" stroke-width=".603" d="M101.073 259.083s-6.099 1.321-6.238 5.403c.003.132 1.196 8.08 16.269 10.737-.444 0-11.656 4.607-11.656 4.607s-15.898-16.074 1.625-20.747Z"/><path fill="#fff" stroke="#231F20" stroke-miterlimit="10" stroke-width=".603" d="M101.073 259.083s-6.099 1.321-6.238 5.403c.003.132 1.196 8.08 16.269 10.737-.444 0-11.656 4.607-11.656 4.607s-15.898-16.074 1.625-20.747Z"/><path stroke="#231F20" stroke-miterlimit="10" stroke-width=".804" d="M111.104 275.156v27.513"/><path fill="#111" d="M111.173 288.418c1.175 0 2.127-.885 2.127-1.976s-.952-1.975-2.127-1.975c-1.176 0-2.128.884-2.128 1.975s.952 1.976 2.128 1.976M111.173 301.311c1.175 0 2.127-.884 2.127-1.976 0-1.091-.952-1.975-2.127-1.975-1.176 0-2.128.884-2.128 1.975s.952 1.976 2.128 1.976"/><path fill="#231F20" d="M136.19 213.174c-.091-1.628-.47-3.234-1.041-4.773-.811-2.183-1.818-4.244-3.651-5.794-1.77-1.497-3.779-2.727-5.933-3.696-4.281-1.926-9.073-2.849-13.818-2.91-2.038-.025-4.01.336-6.02.602-2.187.289-4.34.901-6.239 1.965-2.815 1.578-5.027 4.24-5.44 7.268q-.01.074-.017.148c-.308.076-.569.162-.735.253-1.5.817-2.486 2.296-2.953 3.852-.468 1.556-.47 3.199-.38 4.813a44.5 44.5 0 0 0 1.38 8.712c.082 2.587.251 5.17.652 7.73q.123.79.277 1.578c.05-2.663.148-5.332.562-7.968.149-.947.338-1.888.49-2.834.158-.977.149-1.97.295-2.941.247-1.639.103-3.399.053-5.084a21.8 21.8 0 0 1 3.078-4.713c3.658 2.179 8.108 2.992 12.403 3.275 5.146.34 10.576 1.866 15.154 4.16 1.231.616 2.415 1.341 3.426 2.231-.026 1.982.453 3.941.762 5.906.413 2.636.512 5.305.561 7.968a41 41 0 0 0 .277-1.578c.387-2.474.557-4.969.643-7.469.016.059.046.111.104.139a.24.24 0 0 0 .187.002.8.8 0 0 0 .18-.095 3.9 3.9 0 0 1 1.186-.51c.67-.164 1.492-1.455 1.931-1.972a10.7 10.7 0 0 0 1.615-2.586c.794-1.787 1.12-3.751 1.011-5.679m-6.195 10.177.008-.21.024-.885c.034.362.002.744-.032 1.095"/><path fill="#fff" stroke="#231F20" stroke-miterlimit="10" stroke-width=".75" d="M122.919 248.999c-7.872 8.891-11.938 7.866-11.92 7.908-6.631-.63-11.805-7.315-11.805-7.315 5.309 12.927-1.216 19.976-1.216 19.976 15.402 12.158 26.04-.008 26.04-.008a5 5 0 0 1-.53-.801c-1.56-2.828-2.369-5.943-2.451-9.132-.083-3.236.463-7.668 1.882-10.628Z"/><path fill="#231F20" d="M99.59 250.108s9.491 20.733 21.795 4.294c-.02.132.616-4.717 2.444-6.596.014-.02-3.604 5.088-7.366 6.952.017-.01-4.652 2.805-5.679 2.493 0 0-8.034-2.253-11.193-7.143"/></svg>
